!!!id: bhatk3189s
!!!vol: 3
!!!page: 189
!!!sthayee: Durge maharani 
!!!raag: bihag
!!!taal: teentaal
!!!tempo: madhyalaya
**kern
!!data: // = = = =/ = = = =/ = = = =/ = = = >N,S/
==1
4ryy
4ryy
4ryy
4ryy
=
4ryy
4ryy
4ryy
4ryy
=
4ryy
4ryy
4ryy
4ryy
=
4ryy
4ryy
4ryy
Bq
4c
!!data: // >P[M  G  -] S/  [N,  -  P,]  -/  -  -  >SN,  -/  S  -  %M  -/
==2
gq
4fH
2eh
4c
=
2BH
[2Gh
=
2G]
cq
2B
=
2c
2fS
!!data: // >R[G  -  S]  -/  >SN,  S  G  M/  P  P  N  N/  S'  S'  S'  S'/
==3
dq
2eH
2ch
=
cq
4B
4c
4e
4f
=
4g
4g
4b
4b
=
4cc
4cc
4cc
4cc
!!data: // >S'N  >DN  m  P/  P  [P  G]  M/  >RG  G  GM  PD/  M  G  RS  >N,S/
==4
ccq
4b
aq
4b
4f#
4g
=
4g
4gH
4eh
4f
=
dq
4e
4e
8e
8f
8g
8a
=
4f
4e
8d
8c
Bq
4c
==
*-
